public/files/perm/themes/base/neo/img/menu_closed.svg

<svg fill="none" height="34" viewBox="0 0 34 34" width="34" xmlns="http://www.w3.org/2000/svg"><path d="m5.66667 25.5h22.66663c.7792 0 1.4167-.6375 1.4167-1.4167 0-.7791-.6375-1.4166-1.4167-1.4166h-22.66663c-.77917 0-1.41667.6375-1.41667 1.4166 0 .7792.6375 1.4167 1.41667 1.4167zm0-7.0833h22.66663c.7792 0 1.4167-.6375 1.4167-1.4167s-.6375-1.4167-1.4167-1.4167h-22.66663c-.77917 0-1.41667.6375-1.41667 1.4167s.6375 1.4167 1.41667 1.4167zm-1.41667-8.50003c0 .77913.6375 1.41663 1.41667 1.41663h22.66663c.7792 0 1.4167-.6375 1.4167-1.41663 0-.77917-.6375-1.41667-1.4167-1.41667h-22.66663c-.77917 0-1.41667.6375-1.41667 1.41667z" fill="#002702"/></svg>

<svg width="34" height="34" viewBox="0 0 34 34" fill="none" xmlns="http://www.w3.org/2000/svg">
<path d="M5.66667 25.5H28.3333C29.1125 25.5 29.75 24.8625 29.75 24.0833C29.75 23.3042 29.1125 22.6667 28.3333 22.6667H5.66667C4.8875 22.6667 4.25 23.3042 4.25 24.0833C4.25 24.8625 4.8875 25.5 5.66667 25.5ZM5.66667 18.4167H28.3333C29.1125 18.4167 29.75 17.7792 29.75 17C29.75 16.2208 29.1125 15.5833 28.3333 15.5833H5.66667C4.8875 15.5833 4.25 16.2208 4.25 17C4.25 17.7792 4.8875 18.4167 5.66667 18.4167ZM4.25 9.91667C4.25 10.6958 4.8875 11.3333 5.66667 11.3333H28.3333C29.1125 11.3333 29.75 10.6958 29.75 9.91667C29.75 9.1375 29.1125 8.5 28.3333 8.5H5.66667C4.8875 8.5 4.25 9.1375 4.25 9.91667Z" fill="#002702"/>
</svg>
